static/assets/head_icons_png/man/bizi/1009179.svg

<svg xmlns="http://www.w3.org/2000/svg" width="16" height="10"><g transform="translate(-62.75 -30.15)"><path d="M70.7 37.85l-.3.25-.15.1H70l-.25-.1-.05-.05.2.05.45-.05.25-.2.35-.25.15-.05.5.05v.05l-.6.15-.2.05h-.1m-1.05.25l-.05-.05-.15-.1h-.1l-.2-.05-.65-.2.05-.05q.1-.2.45 0l.2.05q.2.1.45.35v.05" fill="#823909"/><radialGradient id="a" gradientUnits="userSpaceOnUse" gradientTransform="matrix(.00185 .00003 -.00003 .00185 70.1 39.05)" spreadMethod="pad" cx="0" cy="0" r="819.2" fx="0" fy="0"><stop offset="0" stop-color="#f39b61"/><stop offset="1" stop-color="#f8be98"/></radialGradient><path d="M72 35.95l-.7-.1-.15-.55.05.7-.05-.45-.1-2.35.1-1.7 1.1-1.35q-.6 2.1-.5 3.75l.15 1.5v.1l.1.45" fill="url(#a)"/><radialGradient id="b" gradientUnits="userSpaceOnUse" gradientTransform="matrix(.00185 .00003 -.00003 .00185 70.15 38.75)" spreadMethod="pad" cx="0" cy="0" r="819.2" fx="0" fy="0"><stop offset="0" stop-color="#f39b61"/><stop offset="1" stop-color="#f8be98"/></radialGradient><path d="M71.3 35.85l.7.1-.1-.45.05.05.2.75.1.7.05.1-.15.5h-.05l-.6.3-.5.2-.5.35-.8.1-1.2-.6-.15-.1q-.35-.35.05-.8l.05-.05v.05l.8.15.75.25.9-.35q.5-.3.45-.75l-.05-.5m-.5 2l.2-.05.6-.15v-.05l-.5-.05-.15.05-.35.25-.25.2-.45.05-.2-.05.05.05.25.1h.25l.15-.1.3-.25h.1m-1.15.2q-.25-.25-.45-.35l-.2-.05q-.35-.2-.45 0l-.05.05.65.2.2.05h.1l.15.1.05.05v-.05" fill="url(#b)"/><radialGradient id="c" gradientUnits="userSpaceOnUse" gradientTransform="matrix(.0007 .00006 0 .0027 70.05 33.55)" spreadMethod="pad" cx="0" cy="0" r="819.2" fx="0" fy="0"><stop offset=".314" stop-color="#fff" stop-opacity=".431"/><stop offset="1" stop-color="#fff" stop-opacity="0"/></radialGradient><path d="M70.3 32.05l.15 1.55-.15 1.55-.05.3-.05.05-.2.25-.2-.3v-.05l-.1-.3q-.15-.65-.15-1.55 0-.95.15-1.55.1-.65.3-.6l.3.65" fill="url(#c)"/><radialGradient id="d" gradientUnits="userSpaceOnUse" gradientTransform="matrix(.00053 .00003 -.00003 .00053 69.9 36.5)" spreadMethod="pad" cx="0" cy="0" r="819.2" fx="0" fy="0"><stop offset=".314" stop-color="#fff" stop-opacity=".431"/><stop offset="1" stop-color="#fff" stop-opacity="0"/></radialGradient><path d="M69.6 36.2q.1-.15.3-.15.2 0 .3.15l.1.3-.15.3-.3.15-.3-.15-.1-.3.15-.3" fill="url(#d)"/><radialGradient id="e" gradientUnits="userSpaceOnUse" gradientTransform="matrix(.00145 -.00021 .00038 .00253 71.75 33.75)" spreadMethod="pad" cx="0" cy="0" r="819.2" fx="0" fy="0"><stop offset=".337" stop-color="#f9c29f"/><stop offset="1" stop-color="#fedec1" stop-opacity="0"/></radialGradient><path d="M73.25 34.2q-.05.4-.85.7l-.45.6v.05l-.05-.05-.2-1.55.15-2.05.05.25v-.3q.45 1.4 1 1.65l.3.2.05.5" fill="url(#e)"/><radialGradient id="f" gradientUnits="userSpaceOnUse" gradientTransform="matrix(.00227 .0011 -.00072 .00513 76.15 36.35)" spreadMethod="pad" cx="0" cy="0" r="819.2" fx="0" fy="0"><stop offset="0" stop-color="#fff" stop-opacity=".314"/><stop offset="1" stop-color="#fff" stop-opacity="0"/></radialGradient><path d="M77.5 34.7q.5.8.4 1.75l-.8 1.95-1.35 1.2q-.7.1-1.2-.65-.5-.85-.4-1.8.1-.95.8-2 .75-1.1 1.4-1.15.6-.15 1.15.7" fill="url(#f)"/><radialGradient id="g" gradientUnits="userSpaceOnUse" gradientTransform="matrix(.00203 -.00055 .00064 .00322 64.25 36.6)" spreadMethod="pad" cx="0" cy="0" r="819.2" fx="0" fy="0"><stop offset="0" stop-color="#fff" stop-opacity=".263"/><stop offset="1" stop-color="#fff" stop-opacity="0"/></radialGradient><path d="M65.15 34.4q.65.65.8 1.5.2.8-.15 1.9-.4.95-.9 1.1-.55.15-1.25-.55-.7-.7-.85-1.55-.2-.8.2-1.85.3-1 .9-1.1.55-.15 1.25.55" fill="url(#g)"/></g></svg>

<?xml version="1.0" encoding="utf-8"?>
<svg version="1.1" id="Layer_1"
xmlns="http://www.w3.org/2000/svg"
xmlns:xlink="http://www.w3.org/1999/xlink"
xmlns:author="http://www.sothink.com"
width="16px" height="10px"
xml:space="preserve">
<g id="453" transform="matrix(1, 0, 0, 1, -62.75, -30.15)">
<path style="fill:#823909;fill-opacity:1" d="M70.7,37.85L70.4 38.1L70.25 38.2L70 38.2L69.75 38.1L69.7 38.05L69.9 38.1L70.35 38.05L70.6 37.85L70.95 37.6L71.1 37.55L71.6 37.6L71.6 37.65L71 37.8L70.8 37.85L70.7 37.85M69.65,38.1L69.6 38.05L69.45 37.95L69.35 37.95L69.15 37.9L68.5 37.7L68.55 37.65Q68.65 37.45 69 37.65L69.2 37.7Q69.4 37.8 69.65 38.05L69.65 38.1" />
<radialGradient
id="RadialGradID_3989" gradientUnits="userSpaceOnUse" gradientTransform="matrix(0.00184631, 3.05176e-005, -3.05176e-005, 0.00184631, 70.1, 39.05)" spreadMethod ="pad" cx="0" cy="0" r="819.2" fx="0" fy="0" >
<stop  offset="0"  style="stop-color:#F39B61;stop-opacity:1" />
<stop  offset="1"  style="stop-color:#F8BE98;stop-opacity:1" />
</radialGradient>
<path style="fill:url(#RadialGradID_3989) " d="M72,35.95L71.3 35.85L71.15 35.3L71.2 36L71.15 35.55L71.05 33.2L71.15 31.5L72.25 30.15Q71.65 32.25 71.75 33.9L71.9 35.4L71.9 35.5L72 35.95" />
<radialGradient
id="RadialGradID_3990" gradientUnits="userSpaceOnUse" gradientTransform="matrix(0.00184631, 3.05176e-005, -3.05176e-005, 0.00184631, 70.15, 38.75)" spreadMethod ="pad" cx="0" cy="0" r="819.2" fx="0" fy="0" >
<stop  offset="0"  style="stop-color:#F39B61;stop-opacity:1" />
<stop  offset="1"  style="stop-color:#F8BE98;stop-opacity:1" />
</radialGradient>
<path style="fill:url(#RadialGradID_3990) " d="M71.3,35.85L72 35.95L71.9 35.5L71.95 35.55L72.15 36.3L72.25 37L72.3 37.1L72.15 37.6L72.1 37.6L71.5 37.9L71 38.1L70.5 38.45L69.7 38.55L68.5 37.95L68.35 37.85Q68 37.5 68.4 37.05L68.45 37L68.45 37.05L69.25 37.2L70 37.45L70.9 37.1Q71.4 36.8 71.35 36.35L71.3 35.85M70.8,37.85L71 37.8L71.6 37.65L71.6 37.6L71.1 37.55L70.95 37.6L70.6 37.85L70.35 38.05L69.9 38.1L69.7 38.05L69.75 38.1L70 38.2L70.25 38.2L70.4 38.1L70.7 37.85L70.8 37.85M69.65,38.05Q69.4 37.8 69.2 37.7L69 37.65Q68.65 37.45 68.55 37.65L68.5 37.7L69.15 37.9L69.35 37.95L69.45 37.95L69.6 38.05L69.65 38.1L69.65 38.05" />
<radialGradient
id="RadialGradID_3991" gradientUnits="userSpaceOnUse" gradientTransform="matrix(0.000701904, 6.10352e-005, 0, 0.00270081, 70.05, 33.55)" spreadMethod ="pad" cx="0" cy="0" r="819.2" fx="0" fy="0" >
<stop  offset="0.313725"  style="stop-color:#FFFFFF;stop-opacity:0.431373" />
<stop  offset="1"  style="stop-color:#FFFFFF;stop-opacity:0" />
</radialGradient>
<path style="fill:url(#RadialGradID_3991) " d="M70.3,32.05L70.45 33.6L70.3 35.15L70.25 35.45L70.2 35.5L70 35.75L69.8 35.45L69.8 35.4L69.7 35.1Q69.55 34.45 69.55 33.55Q69.55 32.6 69.7 32Q69.8 31.35 70 31.4L70.3 32.05" />
<radialGradient
id="RadialGradID_3992" gradientUnits="userSpaceOnUse" gradientTransform="matrix(0.000534058, 3.05176e-005, -3.05176e-005, 0.000534058, 69.9, 36.5)" spreadMethod ="pad" cx="0" cy="0" r="819.2" fx="0" fy="0" >
<stop  offset="0.313725"  style="stop-color:#FFFFFF;stop-opacity:0.431373" />
<stop  offset="1"  style="stop-color:#FFFFFF;stop-opacity:0" />
</radialGradient>
<path style="fill:url(#RadialGradID_3992) " d="M69.6,36.2Q69.7 36.05 69.9 36.05Q70.1 36.05 70.2 36.2L70.3 36.5L70.15 36.8L69.85 36.95L69.55 36.8L69.45 36.5L69.6 36.2" />
<radialGradient
id="RadialGradID_3993" gradientUnits="userSpaceOnUse" gradientTransform="matrix(0.00144958, -0.000213623, 0.00038147, 0.00253296, 71.75, 33.75)" spreadMethod ="pad" cx="0" cy="0" r="819.2" fx="0" fy="0" >
<stop  offset="0.337255"  style="stop-color:#F9C29F;stop-opacity:1" />
<stop  offset="1"  style="stop-color:#FEDEC1;stop-opacity:0" />
</radialGradient>
<path style="fill:url(#RadialGradID_3993) " d="M73.25,34.2Q73.2 34.6 72.4 34.9L71.95 35.5L71.95 35.55L71.9 35.5L71.7 33.95L71.85 31.9L71.9 32.15L71.9 31.85Q72.35 33.25 72.9 33.5L73.2 33.7L73.25 34.2" />
<radialGradient
id="RadialGradID_3994" gradientUnits="userSpaceOnUse" gradientTransform="matrix(0.00227356, 0.00109863, -0.000717163, 0.00512695, 76.15, 36.35)" spreadMethod ="pad" cx="0" cy="0" r="819.2" fx="0" fy="0" >
<stop  offset="0"  style="stop-color:#FFFFFF;stop-opacity:0.313725" />
<stop  offset="1"  style="stop-color:#FFFFFF;stop-opacity:0" />
</radialGradient>
<path style="fill:url(#RadialGradID_3994) " d="M77.5,34.7Q78 35.5 77.9 36.45L77.1 38.4L75.75 39.6Q75.05 39.7 74.55 38.95Q74.05 38.1 74.15 37.15Q74.25 36.2 74.95 35.15Q75.7 34.05 76.35 34Q76.95 33.85 77.5 34.7" />
<radialGradient
id="RadialGradID_3995" gradientUnits="userSpaceOnUse" gradientTransform="matrix(0.00202942, -0.000549316, 0.000640869, 0.0032196, 64.25, 36.6)" spreadMethod ="pad" cx="0" cy="0" r="819.2" fx="0" fy="0" >
<stop  offset="0"  style="stop-color:#FFFFFF;stop-opacity:0.262745" />
<stop  offset="1"  style="stop-color:#FFFFFF;stop-opacity:0" />
</radialGradient>
<path style="fill:url(#RadialGradID_3995) " d="M65.15,34.4Q65.8 35.05 65.95 35.9Q66.15 36.7 65.8 37.8Q65.4 38.75 64.9 38.9Q64.35 39.05 63.65 38.35Q62.95 37.65 62.8 36.8Q62.6 36 63 34.95Q63.3 33.95 63.9 33.85Q64.45 33.7 65.15 34.4" />
</g>
</svg>
